src/images/svg/payment-methods/payment-neteller.svg

<svg width="128" height="80" viewBox="0 0 128 80" fill="none" xmlns="http://www.w3.org/2000/svg">
<path fill-rule="evenodd" clip-rule="evenodd" d="M112.163 33.2956C110.893 32.4489 108.96 32 106.435 32H99.8167L97.3505 45.1518H88.6821L89.232 42.2021H94.5032L95.1209 38.8546H89.8602L90.4176 35.8808H95.8003L96.5205 32.0241H85.5892L83.2496 44.4829H79.2498L81.597 32.0331H75.8602L73.5462 44.4814H69.6398L71.996 32.0331H66.2848L63.8187 45.1593H55.081L55.6323 42.2021H60.878L61.4957 38.8124H56.259L56.8195 35.8295H62.3016L62.9705 32.0331H28.9129L26.9725 42.4567L23.1174 32.0331H17.1848L14 48.9813H19.6599L21.6259 38.3032L25.338 48.9813H45.6246L48.0908 35.8205H51.2846L48.7943 48.9813H102.18L103.732 40.676L106.274 48.9813H111.943L109.35 42.2021L109.934 42.0755C111.125 41.8706 112.203 41.2469 112.978 40.3204C113.689 39.3322 114.047 38.1315 113.993 36.9142C114.079 35.468 113.38 34.085 112.163 33.2956ZM40.6938 45.1593H32.0314L32.5918 42.2021H38.0228L38.6419 38.8124H33.2607L33.7774 35.8551H42.4293L40.6923 45.1593H40.6938ZM107.494 39.4316C106.726 39.8775 105.838 40.0809 104.952 40.0161H103.826L104.672 35.4484H105.52C106.245 35.4032 106.97 35.5569 107.613 35.8973C108.163 36.2348 108.487 36.8449 108.46 37.4912C108.499 38.2595 108.133 38.9932 107.495 39.4226V39.4316H107.494Z" fill="#8DC640"/>
</svg>

<svg width="128" height="80" fill="none" xmlns="http://www.w3.org/2000/svg"><path fill-rule="evenodd" clip-rule="evenodd" d="M112.163 33.296c-1.27-.847-3.203-1.296-5.728-1.296h-6.618L97.35 45.152h-8.669l.55-2.95h5.271l.618-3.347h-5.26l.557-2.974H95.8l.72-3.857H85.59l-2.34 12.459h-4l2.347-12.45H75.86l-2.314 12.448H69.64l2.356-12.448h-5.711L63.819 45.16H55.08l.551-2.957h5.246l.618-3.39h-5.237l.56-2.982h5.483l.669-3.797H28.913l-1.94 10.424-3.856-10.424h-5.932L14 48.981h5.66l1.966-10.678 3.712 10.678h20.287l2.466-13.16h3.194l-2.49 13.16h53.385l1.552-8.305 2.542 8.305h5.669l-2.593-6.779.584-.127a5.097 5.097 0 0 0 3.044-1.755 5.423 5.423 0 0 0 1.015-3.406 4.03 4.03 0 0 0-1.83-3.618zm-71.47 11.863h-8.662l.56-2.957h5.432l.619-3.39H33.26l.516-2.957h8.652l-1.737 9.304h.002zm66.801-5.727a4.425 4.425 0 0 1-2.542.584h-1.126l.846-4.568h.848a3.948 3.948 0 0 1 2.093.45c.55.337.874.947.847 1.593a2.194 2.194 0 0 1-.965 1.932v.009h-.001z" fill="#8DC640"/></svg>
